X:61
T:Rothersbridge Assembly. WM.061
M:6/8
L:1/8
Q:3/8=110
S:Wm.Mittell’s MS, New Romney,Kent,1799
R:.Jig
O:England
A:Kent
Z:vmp.Chris Partington
K:D
A|dfd ege|dfde2A|dfd egf|edcd2:|!
|:e|fga ABA|fgaA2g|fga Agf|(~f3e2)g|!
“NB”fga ABA|fga A2g|fga Agf|edcd2:|
W:Bar 5 in B Music is missed out,so I have assumed one.

